flaticon/interaction/database-9.svg

<svg xmlns="http://www.w3.org/2000/svg" width="32" height="32" viewBox="0 0 24 24">
    <path d="M 23.238281 17.625 L 22.628906 17.511719 C 22.34375 17.457031 22.121094 17.269531 22.011719 16.996094 C 21.90625 16.726562 21.945312 16.4375 22.117188 16.203125 L 22.5 15.683594 C 22.621094 15.515625 22.605469 15.285156 22.457031 15.136719 L 21.632812 14.3125 C 21.488281 14.171875 21.265625 14.148438 21.097656 14.261719 L 20.585938 14.609375 C 20.34375 14.773438 20.054688 14.796875 19.789062 14.683594 C 19.519531 14.566406 19.34375 14.335938 19.300781 14.046875 L 19.199219 13.410156 C 19.167969 13.203125 18.992188 13.050781 18.785156 13.050781 L 17.617188 13.050781 C 17.417969 13.050781 17.242188 13.195312 17.207031 13.394531 L 17.054688 14.179688 C 17 14.457031 16.820312 14.679688 16.558594 14.789062 C 16.292969 14.898438 16.007812 14.867188 15.773438 14.710938 L 15.113281 14.261719 C 14.945312 14.148438 14.722656 14.171875 14.578125 14.3125 L 13.753906 15.136719 C 13.605469 15.285156 13.589844 15.515625 13.710938 15.683594 L 14.09375 16.203125 C 14.265625 16.4375 14.304688 16.726562 14.195312 17 C 14.089844 17.269531 13.867188 17.457031 13.582031 17.511719 L 12.972656 17.625 C 12.773438 17.664062 12.632812 17.839844 12.632812 18.039062 L 12.632812 19.207031 C 12.632812 19.414062 12.78125 19.589844 12.988281 19.621094 L 13.625 19.722656 C 13.914062 19.765625 14.144531 19.941406 14.261719 20.210938 C 14.378906 20.476562 14.351562 20.765625 14.1875 21.007812 L 13.839844 21.519531 C 13.726562 21.6875 13.75 21.910156 13.890625 22.054688 L 14.714844 22.878906 C 14.863281 23.023438 15.09375 23.042969 15.261719 22.921875 L 15.785156 22.539062 C 16.015625 22.367188 16.308594 22.328125 16.578125 22.433594 C 16.847656 22.542969 17.035156 22.765625 17.089844 23.050781 L 17.207031 23.660156 C 17.242188 23.855469 17.417969 24 17.621094 24 L 18.785156 24 C 18.992188 24 19.171875 23.847656 19.203125 23.644531 L 19.269531 23.195312 C 19.316406 22.90625 19.503906 22.664062 19.773438 22.554688 C 20.042969 22.441406 20.347656 22.476562 20.582031 22.652344 L 20.949219 22.921875 C 21.117188 23.042969 21.347656 23.023438 21.496094 22.878906 L 22.320312 22.054688 C 22.460938 21.910156 22.484375 21.6875 22.371094 21.519531 L 22.023438 21.007812 C 21.859375 20.765625 21.832031 20.476562 21.949219 20.207031 C 22.066406 19.941406 22.296875 19.765625 22.585938 19.71875 L 23.222656 19.621094 C 23.425781 19.589844 23.578125 19.414062 23.578125 19.207031 L 23.578125 18.039062 C 23.578125 17.839844 23.433594 17.664062 23.238281 17.625 Z M 22.738281 18.84375 L 22.457031 18.890625 C 21.886719 18.976562 21.40625 19.34375 21.175781 19.871094 C 20.945312 20.402344 21.003906 21.003906 21.324219 21.480469 L 21.476562 21.703125 L 21.15625 22.027344 L 21.078125 21.972656 C 20.605469 21.625 19.996094 21.550781 19.449219 21.777344 C 18.90625 22 18.527344 22.484375 18.4375 23.066406 L 18.425781 23.15625 L 17.96875 23.15625 L 17.917969 22.890625 C 17.808594 22.324219 17.421875 21.859375 16.886719 21.652344 C 16.347656 21.441406 15.75 21.519531 15.285156 21.859375 L 15.054688 22.027344 L 14.734375 21.703125 L 14.882812 21.480469 C 15.207031 21 15.261719 20.402344 15.03125 19.871094 C 14.800781 19.34375 14.324219 18.976562 13.753906 18.886719 L 13.472656 18.84375 L 13.472656 18.386719 L 13.738281 18.335938 C 14.308594 18.226562 14.769531 17.84375 14.980469 17.304688 C 15.191406 16.769531 15.113281 16.171875 14.773438 15.707031 L 14.605469 15.476562 L 14.929688 15.152344 L 15.304688 15.40625 C 15.769531 15.722656 16.359375 15.78125 16.878906 15.566406 C 17.402344 15.351562 17.777344 14.890625 17.882812 14.339844 L 17.96875 13.894531 L 18.425781 13.894531 L 18.46875 14.175781 C 18.554688 14.746094 18.921875 15.222656 19.453125 15.453125 C 19.980469 15.683594 20.582031 15.628906 21.058594 15.304688 L 21.28125 15.152344 L 21.605469 15.476562 L 21.4375 15.707031 C 21.097656 16.171875 21.019531 16.769531 21.230469 17.304688 C 21.441406 17.84375 21.90625 18.226562 22.472656 18.335938 L 22.738281 18.386719 Z M 22.738281 18.84375"/>
    <path d="M18.105469 16.421875C16.945312 16.421875 16 17.367188 16 18.527344 16 19.6875 16.945312 20.632812 18.105469 20.632812 19.265625 20.632812 20.210938 19.6875 20.210938 18.527344 20.210938 17.367188 19.265625 16.421875 18.105469 16.421875zM18.105469 19.789062C17.410156 19.789062 16.84375 19.222656 16.84375 18.527344 16.84375 17.828125 17.410156 17.261719 18.105469 17.261719 18.800781 17.261719 19.367188 17.828125 19.367188 18.527344 19.367188 19.222656 18.800781 19.789062 18.105469 19.789062zM10.949219 17.261719C10.597656 17.261719 10.257812 17.257812 9.921875 17.246094 9.71875 17.238281 9.519531 17.222656 9.320312 17.210938 9.199219 17.203125 9.070312 17.199219 8.949219 17.191406 8.683594 17.171875 8.425781 17.148438 8.171875 17.121094 8.125 17.117188 8.074219 17.113281 8.027344 17.109375 7.734375 17.074219 7.449219 17.039062 7.171875 17 7.167969 16.996094 7.160156 16.996094 7.152344 16.996094 5.726562 16.785156 4.503906 16.464844 3.546875 16.082031 3.542969 16.082031 3.539062 16.078125 3.53125 16.078125 3.355469 16.007812 3.191406 15.933594 3.03125 15.859375 3.015625 15.847656 2.996094 15.839844 2.976562 15.832031 2.835938 15.765625 2.703125 15.695312 2.578125 15.621094 2.550781 15.605469 2.519531 15.589844 2.488281 15.570312 2.382812 15.507812 2.28125 15.441406 2.1875 15.378906 2.148438 15.351562 2.113281 15.328125 2.078125 15.300781 1.996094 15.242188 1.925781 15.183594 1.855469 15.121094 1.820312 15.089844 1.78125 15.054688 1.746094 15.023438 1.691406 14.96875 1.640625 14.914062 1.59375 14.859375 1.5625 14.820312 1.53125 14.78125 1.503906 14.742188 1.464844 14.6875 1.433594 14.636719 1.40625 14.585938 1.382812 14.542969 1.363281 14.503906 1.34375 14.460938 1.324219 14.410156 1.308594 14.359375 1.296875 14.308594 1.28125 14.242188 1.261719 14.171875 1.261719 14.105469L1.261719 10.648438C1.273438 10.660156 1.289062 10.671875 1.300781 10.683594 1.394531 10.761719 1.488281 10.84375 1.59375 10.921875 3.179688 12.121094 6.351562 13.050781 10.949219 13.050781 15.527344 13.050781 18.6875 12.128906 20.28125 10.9375 20.410156 10.84375 20.523438 10.746094 20.632812 10.648438L20.632812 12.210938C20.632812 12.445312 20.820312 12.632812 21.050781 12.632812 21.285156 12.632812 21.472656 12.445312 21.472656 12.210938L21.472656 3.789062C21.472656 3.710938 21.449219 3.644531 21.414062 3.582031 20.925781 1.777344 17.296875 0 10.949219 0 4.597656 0 .96875 1.777344.484375 3.582031.445312 3.644531.421875 3.710938.421875 3.789062L.421875 19.367188C.421875 19.4375.4375 19.5.46875 19.558594.949219 21.59375 4.972656 22.789062 8.808594 23.078125 8.820312 23.078125 8.832031 23.078125 8.84375 23.078125 9.0625 23.078125 9.246094 22.910156 9.261719 22.691406 9.277344 22.457031 9.105469 22.257812 8.875 22.238281 4.195312 21.886719 1.46875 20.464844 1.277344 19.300781 1.273438 19.28125 1.269531 19.261719 1.261719 19.246094L1.261719 15.703125C1.273438 15.714844 1.289062 15.722656 1.300781 15.734375 1.394531 15.816406 1.488281 15.894531 1.59375 15.972656 3.179688 17.171875 6.351562 18.105469 10.949219 18.105469 11.179688 18.105469 11.367188 17.917969 11.367188 17.683594 11.367188 17.453125 11.179688 17.261719 10.949219 17.261719zM1.515625 5.808594C1.640625 5.910156 1.777344 6.007812 1.925781 6.101562 1.957031 6.121094 1.992188 6.140625 2.023438 6.160156 2.148438 6.238281 2.277344 6.3125 2.417969 6.386719 2.46875 6.414062 2.519531 6.441406 2.570312 6.46875 2.726562 6.546875 2.886719 6.625 3.054688 6.695312 3.082031 6.710938 3.109375 6.722656 3.136719 6.734375 3.335938 6.816406 3.542969 6.898438 3.761719 6.976562 3.824219 6.996094 3.886719 7.015625 3.949219 7.039062 4.121094 7.097656 4.300781 7.152344 4.484375 7.207031 4.554688 7.226562 4.617188 7.246094 4.6875 7.265625 4.933594 7.332031 5.1875 7.398438 5.457031 7.457031 5.492188 7.464844 5.53125 7.472656 5.570312 7.480469 5.804688 7.53125 6.046875 7.582031 6.300781 7.625 6.382812 7.640625 6.46875 7.652344 6.558594 7.667969 6.796875 7.707031 7.042969 7.742188 7.292969 7.777344 7.359375 7.785156 7.421875 7.792969 7.484375 7.800781 7.800781 7.839844 8.125 7.871094 8.457031 7.902344 8.539062 7.90625 8.625 7.914062 8.707031 7.917969 8.972656 7.9375 9.246094 7.953125 9.527344 7.964844 9.625 7.972656 9.726562 7.976562 9.832031 7.980469 10.195312 7.992188 10.5625 8 10.949219 8 11.332031 8 11.699219 7.992188 12.0625 7.980469 12.167969 7.976562 12.265625 7.96875 12.371094 7.964844 12.648438 7.953125 12.921875 7.9375 13.1875 7.917969 13.269531 7.910156 13.355469 7.90625 13.4375 7.902344 13.769531 7.875 14.09375 7.839844 14.410156 7.800781 14.472656 7.792969 14.535156 7.785156 14.601562 7.777344 14.851562 7.742188 15.097656 7.707031 15.335938 7.667969 15.425781 7.652344 15.511719 7.640625 15.597656 7.625 15.847656 7.582031 16.089844 7.53125 16.328125 7.480469 16.363281 7.472656 16.402344 7.464844 16.441406 7.457031 16.707031 7.398438 16.960938 7.332031 17.207031 7.265625 17.277344 7.246094 17.339844 7.226562 17.410156 7.207031 17.59375 7.152344 17.773438 7.097656 17.945312 7.039062 18.007812 7.015625 18.070312 6.996094 18.132812 6.976562 18.351562 6.898438 18.558594 6.816406 18.757812 6.734375 18.785156 6.722656 18.8125 6.710938 18.839844 6.695312 19.007812 6.625 19.167969 6.546875 19.324219 6.46875 19.375 6.441406 19.425781 6.414062 19.476562 6.386719 19.617188 6.3125 19.746094 6.238281 19.871094 6.160156 19.902344 6.140625 19.9375 6.121094 19.96875 6.101562 20.117188 6.007812 20.253906 5.910156 20.378906 5.808594 20.410156 5.785156 20.4375 5.757812 20.46875 5.734375 20.523438 5.6875 20.582031 5.644531 20.632812 5.597656L20.632812 9.050781C20.632812 9.121094 20.613281 9.1875 20.597656 9.257812 20.585938 9.308594 20.570312 9.359375 20.550781 9.410156 20.53125 9.449219 20.511719 9.492188 20.488281 9.535156 20.460938 9.585938 20.429688 9.636719 20.390625 9.691406 20.363281 9.726562 20.332031 9.769531 20.300781 9.804688 20.253906 9.863281 20.203125 9.917969 20.148438 9.972656 20.113281 10.003906 20.074219 10.039062 20.039062 10.070312 19.96875 10.132812 19.898438 10.191406 19.816406 10.25 19.78125 10.277344 19.746094 10.300781 19.707031 10.324219 19.613281 10.390625 19.515625 10.457031 19.40625 10.519531 19.375 10.539062 19.34375 10.554688 19.316406 10.570312 19.191406 10.640625 19.058594 10.710938 18.917969 10.78125 18.898438 10.789062 18.878906 10.796875 18.863281 10.808594 18.703125 10.882812 18.539062 10.953125 18.363281 11.023438 18.359375 11.027344 18.351562 11.027344 18.347656 11.03125 17.390625 11.414062 16.167969 11.734375 14.742188 11.945312 14.734375 11.945312 14.726562 11.945312 14.722656 11.949219 14.445312 11.988281 14.160156 12.023438 13.867188 12.054688 13.820312 12.0625 13.769531 12.066406 13.722656 12.070312 13.46875 12.097656 13.210938 12.121094 12.945312 12.140625 12.824219 12.148438 12.695312 12.152344 12.574219 12.160156 12.375 12.171875 12.175781 12.1875 11.972656 12.191406 11.636719 12.203125 11.296875 12.210938 10.949219 12.210938 10.597656 12.210938 10.257812 12.203125 9.921875 12.191406 9.71875 12.183594 9.519531 12.171875 9.320312 12.160156 9.199219 12.152344 9.070312 12.148438 8.949219 12.140625 8.683594 12.121094 8.425781 12.09375 8.171875 12.070312 8.125 12.0625 8.074219 12.058594 8.027344 12.054688 7.734375 12.023438 7.449219 11.988281 7.171875 11.945312 7.167969 11.945312 7.160156 11.945312 7.152344 11.941406 5.726562 11.734375 4.503906 11.410156 3.546875 11.03125 3.542969 11.027344 3.539062 11.027344 3.53125 11.023438 3.355469 10.953125 3.191406 10.878906 3.03125 10.804688 3.015625 10.796875 2.996094 10.789062 2.976562 10.78125 2.835938 10.710938 2.703125 10.640625 2.578125 10.570312 2.550781 10.554688 2.519531 10.535156 2.488281 10.519531 2.382812 10.457031 2.28125 10.390625 2.1875 10.324219 2.148438 10.300781 2.113281 10.273438 2.078125 10.25 1.996094 10.191406 1.925781 10.128906 1.855469 10.070312 1.820312 10.035156 1.78125 10.003906 1.746094 9.96875 1.691406 9.914062 1.640625 9.859375 1.59375 9.804688 1.5625 9.765625 1.53125 9.726562 1.503906 9.6875 1.464844 9.636719 1.433594 9.585938 1.40625 9.53125 1.382812 9.492188 1.363281 9.449219 1.34375 9.40625 1.324219 9.355469 1.308594 9.304688 1.296875 9.253906 1.28125 9.1875 1.261719 9.121094 1.261719 9.050781L1.261719 5.597656C1.3125 5.644531 1.371094 5.6875 1.425781 5.734375 1.457031 5.757812 1.484375 5.785156 1.515625 5.808594zM10.949219.84375C16.65625.84375 20.632812 2.507812 20.632812 4 20.632812 5.492188 16.65625 7.15625 10.949219 7.15625 5.238281 7.15625 1.261719 5.492188 1.261719 4 1.261719 2.507812 5.238281.84375 10.949219.84375zM10.949219.84375"/>
</svg>

<svg xmlns="http://www.w3.org/2000/svg" width="32" height="32" viewBox="0 0 24 24">
    <path d="M23.238 17.625l-.61-.113a.821.821 0 0 1-.616-.516.815.815 0 0 1 .105-.793l.383-.52a.422.422 0 0 0-.043-.546l-.824-.825a.426.426 0 0 0-.535-.05l-.512.347a.82.82 0 0 1-.797.075.808.808 0 0 1-.488-.637l-.102-.637a.42.42 0 0 0-.414-.36h-1.168c-.199 0-.375.145-.41.345l-.152.785a.822.822 0 0 1-.496.61.826.826 0 0 1-.786-.08l-.66-.448a.426.426 0 0 0-.535.05l-.824.825a.422.422 0 0 0-.043.547l.383.52a.81.81 0 0 1 .101.796.812.812 0 0 1-.613.512l-.61.113c-.199.04-.34.215-.34.414v1.168c0 .207.15.383.356.414l.637.102c.29.043.52.218.637.488a.81.81 0 0 1-.075.797l-.347.512a.426.426 0 0 0 .05.535l.825.824a.427.427 0 0 0 .547.043l.523-.383a.814.814 0 0 1 .793-.105c.27.109.457.332.512.617l.117.61a.42.42 0 0 0 .414.339h1.164a.424.424 0 0 0 .418-.355l.067-.45a.828.828 0 0 1 .503-.64.814.814 0 0 1 .809.097l.367.27a.427.427 0 0 0 .547-.043l.824-.824a.426.426 0 0 0 .051-.535l-.348-.512a.816.816 0 0 1-.074-.801.824.824 0 0 1 .637-.488l.637-.098a.42.42 0 0 0 .355-.414v-1.168c0-.2-.144-.375-.34-.414zm-.5 1.219l-.281.047c-.57.086-1.05.453-1.281.98a1.677 1.677 0 0 0 .148 1.61l.153.222-.32.324-.079-.054a1.658 1.658 0 0 0-1.629-.196 1.656 1.656 0 0 0-1.012 1.29l-.011.09h-.457l-.051-.266a1.658 1.658 0 0 0-1.031-1.239 1.668 1.668 0 0 0-1.602.207l-.23.168-.32-.324.148-.223c.324-.48.379-1.078.148-1.609a1.669 1.669 0 0 0-1.277-.984l-.281-.043v-.457l.265-.051a1.656 1.656 0 0 0 1.242-1.031 1.662 1.662 0 0 0-.207-1.598l-.168-.23.325-.325.375.254a1.663 1.663 0 0 0 1.574.16 1.662 1.662 0 0 0 1.004-1.226l.086-.445h.457l.043.28c.086.571.453 1.048.984 1.278a1.66 1.66 0 0 0 1.606-.148l.222-.153.324.325-.168.23a1.662 1.662 0 0 0-.207 1.598c.211.539.676.922 1.243 1.03l.265.052zm0 0"/>
    <path d="M18.105 16.422c-1.16 0-2.105.945-2.105 2.105 0 1.16.945 2.106 2.105 2.106 1.16 0 2.106-.945 2.106-2.106 0-1.16-.945-2.105-2.106-2.105zm0 3.367a1.264 1.264 0 0 1 0-2.527 1.264 1.264 0 0 1 0 2.527zm0 0M10.95 17.262c-.352 0-.692-.004-1.028-.016-.203-.008-.402-.023-.602-.035-.12-.008-.25-.012-.37-.02-.266-.02-.524-.043-.778-.07l-.145-.012c-.293-.035-.578-.07-.855-.109-.004-.004-.012-.004-.02-.004-1.425-.21-2.648-.531-3.605-.914-.004 0-.008-.004-.016-.004-.176-.07-.34-.144-.5-.219a4.768 4.768 0 0 1-.453-.238c-.027-.016-.058-.031-.09-.05a6.732 6.732 0 0 1-.3-.192c-.04-.027-.075-.05-.11-.078a2.625 2.625 0 0 1-.223-.18l-.109-.098a2.919 2.919 0 0 1-.152-.164c-.032-.039-.063-.078-.09-.117a1.438 1.438 0 0 1-.16-.281 1.136 1.136 0 0 1-.047-.152c-.016-.067-.035-.137-.035-.204v-3.457c.011.012.027.024.039.036.094.078.187.16.293.238 1.586 1.2 4.758 2.129 9.355 2.129 4.578 0 7.739-.922 9.332-2.114.13-.093.242-.19.352-.289v1.563a.42.42 0 1 0 .84 0V3.789a.412.412 0 0 0-.059-.207C20.926 1.777 17.297 0 10.95 0 4.598 0 .97 1.777.484 3.582a.38.38 0 0 0-.062.207v15.578c0 .07.016.133.047.192.48 2.035 4.504 3.23 8.34 3.52h.035a.418.418 0 0 0 .418-.388.423.423 0 0 0-.387-.453c-4.68-.351-7.406-1.773-7.598-2.937a.224.224 0 0 0-.015-.055v-3.543c.011.012.027.02.039.031.094.082.187.16.293.239 1.586 1.199 4.758 2.132 9.355 2.132a.422.422 0 1 0 0-.844zM1.515 5.809c.125.101.261.199.41.293.031.02.066.039.097.058.125.078.254.152.395.227l.152.082c.157.078.317.156.485.226.027.016.054.028.082.04.199.081.406.163.625.242.062.02.125.039.187.062.172.059.352.113.535.168.07.02.133.04.204.059.246.066.5.132.769.191l.113.023c.235.051.477.102.73.145.083.016.169.027.259.043.238.039.484.074.734.11l.191.023c.317.039.641.07.973.101.082.004.168.012.25.016.266.02.54.035.82.047.098.008.2.012.305.015.363.012.73.02 1.117.02.383 0 .75-.008 1.114-.02.105-.003.203-.011.308-.015.277-.012.55-.027.816-.047.083-.008.168-.012.25-.016.333-.027.657-.062.973-.101l.192-.024c.25-.035.496-.07.734-.109.09-.016.176-.027.262-.043.25-.043.492-.094.73-.145l.113-.023c.266-.059.52-.125.766-.191.07-.02.133-.04.203-.059.184-.055.363-.11.535-.168.063-.023.125-.043.188-.062.219-.079.426-.16.625-.243.027-.011.055-.023.082-.039a7.917 7.917 0 0 0 1.031-.535c.031-.02.067-.039.098-.058a4.24 4.24 0 0 0 .41-.293c.031-.024.058-.051.09-.075.054-.046.113-.09.164-.136V9.05c0 .07-.02.136-.035.207-.012.05-.028.101-.047.152-.02.04-.04.082-.063.125-.027.05-.058.102-.097.156-.028.036-.059.079-.09.114a2.04 2.04 0 0 1-.153.168l-.109.097a2.625 2.625 0 0 1-.332.254 3.638 3.638 0 0 1-.3.196c-.032.02-.063.035-.09.05a9.262 9.262 0 0 1-.454.239c-.16.074-.324.144-.5.214-.004.004-.011.004-.015.008-.957.383-2.18.703-3.606.914-.008 0-.015 0-.02.004-.277.04-.562.074-.855.106-.047.008-.097.011-.144.015-.254.028-.512.051-.778.07-.12.008-.25.012-.37.02-.2.012-.4.027-.602.031-.336.012-.676.02-1.024.02-.351 0-.691-.008-1.027-.02-.203-.007-.402-.02-.602-.03-.12-.009-.25-.013-.37-.02-.266-.02-.524-.047-.778-.07-.047-.008-.098-.012-.145-.016a18.222 18.222 0 0 1-.855-.11c-.004 0-.012 0-.02-.004-1.425-.207-2.648-.53-3.605-.91-.004-.004-.008-.004-.016-.008a10.088 10.088 0 0 1-.554-.242c-.141-.07-.274-.14-.399-.21-.027-.016-.058-.036-.09-.051a4.44 4.44 0 0 1-.3-.196c-.04-.023-.075-.05-.11-.074-.082-.059-.152-.121-.223-.18-.035-.035-.074-.066-.109-.101a2.919 2.919 0 0 1-.152-.164c-.032-.04-.063-.078-.09-.117a.945.945 0 0 1-.098-.157c-.023-.039-.043-.082-.062-.125a1.135 1.135 0 0 1-.047-.152c-.016-.066-.035-.133-.035-.203V5.598c.05.047.11.09.164.136.031.024.058.051.09.075zM10.949.844c5.707 0 9.684 1.664 9.684 3.156 0 1.492-3.977 3.156-9.684 3.156-5.71 0-9.687-1.664-9.687-3.156 0-1.492 3.976-3.156 9.687-3.156zm0 0"/>
</svg>
